src/images/table.svg

<svg viewBox="0 0 32 32" xmlns="http://www.w3.org/2000/svg">
  <title>table</title>
  <path d="M29 5a2 2 0 0 0-2-2H5a2 2 0 0 0-2 2v22a2 2 0 0 0 2 2h22a2 2 0 0 0 2-2Zm-2 0v4H5V5Zm0 22H5v-4h22Zm0-6H5v-4h22Zm0-6H5v-4h22Z"/>
  <path d="M0 0h32v32H0z" data-name="&lt;Transparent Rectangle&gt;" style="fill:none"/>
</svg>

<svg id="icon" xmlns="http://www.w3.org/2000/svg" viewBox="0 0 32 32"><defs><style>.cls-1{fill:none;}</style></defs><title>table</title><path d="M29,5a2,2,0,0,0-2-2H5A2,2,0,0,0,3,5V27a2,2,0,0,0,2,2H27a2,2,0,0,0,2-2ZM27,5V9H5V5Zm0,22H5V23H27Zm0-6H5V17H27Zm0-6H5V11H27Z" transform="translate(0)"/><rect id="_Transparent_Rectangle_" data-name="&lt;Transparent Rectangle&gt;" class="cls-1" width="32" height="32"/></svg>
